; generated by SuperSlicer 2.2.53 on 2020-10-08 at 07:44:10 UTC

; TODO: check the size of the extruder and the y-bar clearance. Optimize & test supports.

; external perimeters extrusion width = 0.42mm
; perimeters extrusion width = 0.44mm
; infill extrusion width = 0.44mm
; solid infill extrusion width = 0.44mm
; top infill extrusion width = 0.44mm
; first layer extrusion width = 0.44mm

; object:{"name":"Logitech_C920-Cover","id":"Logitech_C920-Cover.stl id:0 copy 0","object_center":[155.000000,155.000000,0.000000],"boundingbox_center":[155.000000,155.000000,3.987633],"boundingbox_size":[20.000000,32.500000,7.975266]}

M291 P"Homing all axis" R"Printing.." S1 T2
G21		; metric values
G28 X; home all axes
G28 Y; home all axes
G28 Z; home all axes

G92 E0 F100		; reset extruder
G1 Z10 F3000 		; move z up little to prevent scratching of surface
G1 X50 F6000 		; move z up little to prevent scratching of surface
;M98 P/macros/Filament/Purge	; Run nozzle purge macro
;G1 E-1 F2000		; Retract 1mm filament
G92 E0 		; reset extruder
M291 P"Printing started !" R"Printing.." S1 T3
G21 ; set units to millimeters
G90 ; use absolute coordinates
M83 ; use relative distances for extrusion
;BEFORE_LAYER_CHANGE
;0.2


G1 Z0.700000 F18000.000
;AFTER_LAYER_CHANGE
;0.2
G1 E-3.00000 F2400.00000
G1 Z1.300000 F18000.000
G1 X144.230 Y135.478
G1 Z0.700000
G1 E3.00000 F1800.00000
M204 S1000
G1 X145.348 Y134.748 E0.04408
G1 X146.621 Y134.327 E0.04426
G1 X147.565 Y134.234 E0.03134
G1 X160.632 Y134.233 E0.43143
G1 X162.829 Y134.251 E0.07253
G1 X164.102 Y134.521 E0.04297
G1 X164.804 Y134.824 E0.02524
G1 X165.448 Y135.225 E0.02505
G1 X166.028 Y135.714 E0.02505
G1 X166.529 Y136.283 E0.02505
G1 X167.029 Y137.084 E0.03116
G1 X167.377 Y137.967 E0.03134
G1 X168.629 Y142.687 E0.16121
G1 X169.233 Y145.553 E0.09672
G1 X169.769 Y149.240 E0.12301
G1 X170.007 Y152.143 E0.09617
G1 X170.076 Y155.907 E0.12431
G1 X169.946 Y158.817 E0.09617
G1 X169.657 Y161.704 E0.09579
G1 X169.049 Y165.408 E0.12394
G1 X168.408 Y168.203 E0.09468
G1 X167.279 Y172.333 E0.14137
G1 X166.635 Y173.572 E0.04610
G1 X165.679 Y174.598 E0.04629
G1 X164.488 Y175.327 E0.04610
G1 X163.146 Y175.712 E0.04610
G1 X162.418 Y175.766 E0.02412
G1 X147.525 Y175.766 E0.49171
G1 X146.675 Y175.683 E0.02820
G1 X145.850 Y175.462 E0.02820
G1 X144.831 Y174.965 E0.03744
G1 X143.940 Y174.254 E0.03763
G1 X143.230 Y173.370 E0.03744
G1 X142.728 Y172.354 E0.03744
G1 X141.593 Y168.207 E0.14196
G1 X140.960 Y165.450 E0.09338
G1 X140.467 Y162.608 E0.09524
G1 X140.128 Y159.727 E0.09579
G1 X139.951 Y156.910 E0.09319
G1 X139.924 Y154.087 E0.09319
G1 X140.051 Y151.234 E0.09431
G1 X140.231 Y149.240 E0.06609
G1 X140.613 Y146.447 E0.09308
G1 X141.146 Y143.664 E0.09357
G1 X142.721 Y137.667 E0.20472
G1 X143.333 Y136.474 E0.04426
G1 X144.190 Y135.523 E0.04228
M204 S1500
G1 X144.484 Y135.791 F18000.000
G1 F1800.000
M204 S1000
G1 X145.564 Y135.085 E0.04260
G1 X146.750 Y134.707 E0.04111
G1 X147.573 Y134.631 E0.02727
G1 X160.632 Y134.630 E0.43118
G1 X162.796 Y134.647 E0.07144
G1 X164.013 Y134.911 E0.04111
G1 X164.683 Y135.210 E0.02425
G1 X165.295 Y135.606 E0.02407
G1 X165.844 Y136.093 E0.02425
G1 X166.312 Y136.659 E0.02425
G1 X166.731 Y137.378 E0.02745
G1 X167.018 Y138.158 E0.02745
G1 X168.251 Y142.813 E0.15900
G1 X168.994 Y146.504 E0.12432
G1 X169.384 Y149.372 E0.09557
G1 X169.653 Y153.107 E0.12361
G1 X169.677 Y155.990 E0.09521
G1 X169.477 Y159.685 E0.12218
G1 X169.141 Y162.549 E0.09521
G1 X168.652 Y165.369 E0.09450
G1 X168.023 Y168.106 E0.09271
G1 X166.900 Y172.214 E0.14061
G1 X166.299 Y173.359 E0.04270
G1 X165.409 Y174.305 E0.04288
G1 X164.303 Y174.975 E0.04270
G1 X163.052 Y175.325 E0.04288
G1 X147.534 Y175.369 E0.51239
G1 X146.738 Y175.291 E0.02638
G1 X145.967 Y175.082 E0.02638
G1 X145.005 Y174.605 E0.03544
G1 X144.178 Y173.930 E0.03526
G1 X143.518 Y173.083 E0.03544
G1 X143.065 Y172.116 E0.03526
G1 X141.976 Y168.101 E0.13737
G1 X141.340 Y165.327 E0.09396
G1 X140.737 Y161.654 E0.12289
G1 X140.451 Y158.806 E0.09450
G1 X140.323 Y155.990 E0.09307
G1 X140.323 Y154.010 E0.06538
G1 X140.450 Y151.216 E0.09236
G1 X140.731 Y148.394 E0.09361
G1 X141.158 Y145.625 E0.09254
G1 X141.543 Y143.710 E0.06449
G1 X143.100 Y137.786 E0.20222
G1 X143.676 Y136.676 E0.04129
G1 X144.444 Y135.836 E0.03759
M204 S1500
G1 X144.735 Y136.105 F18000.000
G1 F1800.000
M204 S1000
G1 X144.794 Y136.041 E0.00288
G1 X145.769 Y135.428 E0.03800
G1 X146.874 Y135.088 E0.03817
G1 X147.579 Y135.028 E0.02339
G1 X162.738 Y135.041 E0.50048
G1 X163.859 Y135.277 E0.03783
G1 X164.488 Y135.556 E0.02271
G1 X165.065 Y135.929 E0.02271
G1 X165.577 Y136.388 E0.02271
G1 X166.014 Y136.926 E0.02288
G1 X166.566 Y138.034 E0.04088
G1 X167.403 Y141.113 E0.10535
G1 X168.073 Y143.813 E0.09183
G1 X168.608 Y146.601 E0.09376
G1 X169.074 Y150.268 E0.12204
G1 X169.256 Y153.123 E0.09444
G1 X169.280 Y155.979 E0.09432
G1 X169.081 Y159.653 E0.12147
G1 X168.748 Y162.489 E0.09427
G1 X168.263 Y165.287 E0.09376
G1 X167.638 Y168.009 E0.09222
G1 X166.521 Y172.094 E0.13983
G1 X165.963 Y173.147 E0.03936
G1 X165.137 Y174.014 E0.03953
G1 X164.113 Y174.624 E0.03936
G1 X162.957 Y174.937 E0.03953
G1 X147.542 Y174.972 E0.50899
G1 X146.806 Y174.900 E0.02441
G1 X146.088 Y174.703 E0.02458
G1 X145.206 Y174.262 E0.03257
G1 X144.444 Y173.634 E0.03257
G1 X143.840 Y172.848 E0.03274
G1 X143.429 Y171.951 E0.03257
G1 X142.360 Y168.000 E0.13513
G1 X141.729 Y165.248 E0.09325
G1 X141.131 Y161.600 E0.12204
G1 X140.845 Y158.749 E0.09461
G1 X140.719 Y155.943 E0.09273
G1 X140.743 Y153.160 E0.09188
G1 X140.849 Y151.205 E0.06467
G1 X141.125 Y148.442 E0.09165
G1 X141.549 Y145.692 E0.09188
G1 X141.930 Y143.799 E0.06376
G1 X143.479 Y137.906 E0.20118
G1 X144.013 Y136.887 E0.03800
G1 X144.695 Y136.149 E0.03315
M204 S1500
G1 X144.985 Y136.421 F18000.000
G1 F1800.000
M204 S1000
G1 X145.075 Y136.324 E0.00438
G1 X145.977 Y135.770 E0.03494
G1 X146.987 Y135.472 E0.03478
G1 X160.632 Y135.424 E0.45051
G1 X162.702 Y135.436 E0.06836
G1 X163.751 Y135.661 E0.03542
G1 X164.348 Y135.932 E0.02165
G1 X164.892 Y136.298 E0.02165
G1 X165.373 Y136.752 E0.02182
G1 X165.769 Y137.275 E0.02165
G1 X166.216 Y138.244 E0.03526
G1 X167.257 Y142.105 E0.13200
G1 X167.877 Y144.807 E0.09155
G1 X168.352 Y147.544 E0.09171
G1 X168.682 Y150.342 E0.09302
G1 X168.860 Y153.171 E0.09360
G1 X168.860 Y156.829 E0.12076
G1 X168.683 Y159.655 E0.09350
G1 X168.354 Y162.438 E0.09253
G1 X167.874 Y165.209 E0.09285
G1 X167.254 Y167.907 E0.09139
G1 X166.144 Y171.969 E0.13903
G1 X165.628 Y172.932 E0.03607
G1 X164.871 Y173.719 E0.03607
G1 X163.928 Y174.271 E0.03607
G1 X162.871 Y174.547 E0.03607
G1 X147.549 Y174.575 E0.50588
G1 X146.872 Y174.508 E0.02247
G1 X146.212 Y174.326 E0.02263
G1 X145.403 Y173.916 E0.02993
G1 X144.711 Y173.338 E0.02976
G1 X144.164 Y172.616 E0.02993
G1 X143.795 Y171.793 E0.02976
G1 X142.744 Y167.900 E0.13314
G1 X142.118 Y165.169 E0.09253
G1 X141.524 Y161.547 E0.12119
G1 X141.240 Y158.699 E0.09448
G1 X141.116 Y155.934 E0.09139
G1 X141.140 Y153.171 E0.09122
G1 X141.245 Y151.237 E0.06396
G1 X141.519 Y148.491 E0.09113
G1 X141.941 Y145.760 E0.09122
G1 X142.318 Y143.883 E0.06321
G1 X143.856 Y138.031 E0.19978
G1 X144.351 Y137.096 E0.03494
G1 X144.944 Y136.465 E0.02857
M204 S1500
G1 X145.231 Y136.738 F18000.000
G1 F1800.000
M204 S1000
G1 X145.347 Y136.615 E0.00559
G1 X146.171 Y136.118 E0.03177
G1 X147.093 Y135.858 E0.03161
G1 X160.632 Y135.821 E0.44702
G1 X162.649 Y135.831 E0.06662
G1 X163.596 Y136.027 E0.03192
G1 X164.150 Y136.277 E0.02008
G1 X164.655 Y136.617 E0.02008
G1 X165.095 Y137.037 E0.02008
G1 X165.455 Y137.521 E0.01993
G1 X165.848 Y138.399 E0.03177
G1 X167.083 Y143.048 E0.15881
G1 X167.494 Y144.919 E0.06325
G1 X167.963 Y147.632 E0.09090
G1 X168.290 Y150.411 E0.09241
G1 X168.487 Y154.042 E0.12005
G1 X168.462 Y156.851 E0.09274
G1 X168.287 Y159.621 E0.09165
G1 X167.962 Y162.378 E0.09165
G1 X167.485 Y165.127 E0.09212
G1 X166.869 Y167.810 E0.09088
G1 X165.767 Y171.843 E0.13805
G1 X165.296 Y172.714 E0.03269
G1 X164.605 Y173.423 E0.03269
G1 X163.747 Y173.916 E0.03269
G1 X162.787 Y174.157 E0.03269
G1 X147.552 Y174.178 E0.50301
G1 X146.937 Y174.116 E0.02039
G1 X146.338 Y173.949 E0.02055
G1 X145.602 Y173.572 E0.02732
G1 X144.968 Y173.032 E0.02747
G1 X144.478 Y172.366 E0.02732
G1 X144.152 Y171.601 E0.02747
G1 X142.915 Y166.943 E0.15911
G1 X142.340 Y164.218 E0.09196
G1 X141.909 Y161.429 E0.09318
G1 X141.581 Y157.793 E0.12052
G1 X141.512 Y155.893 E0.06279
G1 X141.538 Y153.149 E0.09059
G1 X141.710 Y150.411 E0.09057
G1 X141.917 Y148.511 E0.06312
G1 X142.332 Y145.828 E0.08964
G1 X142.706 Y143.967 E0.06265
G1 X144.233 Y138.157 E0.19836
G1 X144.688 Y137.309 E0.03177
G1 X145.189 Y136.781 E0.02404
M204 S1500
G1 X145.474 Y137.056 F18000.000
G1 F1800.000
M204 S1000
G1 X145.619 Y136.907 E0.00686
G1 X146.358 Y136.470 E0.02836
G1 X147.192 Y136.245 E0.02851
G1 X162.609 Y136.226 E0.50902
G1 X163.467 Y136.402 E0.02894
G1 X163.985 Y136.639 E0.01879
G1 X164.449 Y136.961 E0.01865
G1 X164.852 Y137.363 E0.01879
G1 X165.177 Y137.830 E0.01879
G1 X165.475 Y138.537 E0.02532
G1 X166.708 Y143.187 E0.15882
G1 X167.271 Y145.865 E0.09036
G1 X167.690 Y148.569 E0.09036
G1 X167.966 Y151.328 E0.09153
G1 X168.090 Y154.084 E0.09109
G1 X168.065 Y156.838 E0.09094
G1 X167.889 Y159.614 E0.09183
G1 X167.569 Y162.323 E0.09006
G1 X167.096 Y165.050 E0.09138
G1 X166.484 Y167.713 E0.09022
G1 X165.391 Y171.717 E0.13705
G1 X164.965 Y172.493 E0.02923
G1 X164.343 Y173.123 E0.02923
G1 X163.572 Y173.558 E0.02923
G1 X162.712 Y173.766 E0.02923
G1 X147.564 Y173.781 E0.50015
G1 X146.466 Y173.573 E0.03686
G1 X145.805 Y173.230 E0.02460
G1 X145.244 Y172.746 E0.02445
G1 X144.808 Y172.143 E0.02460
G1 X144.523 Y171.454 E0.02460
G1 X143.301 Y166.848 E0.15736
G1 X142.730 Y164.144 E0.09124
G1 X142.304 Y161.382 E0.09227
G1 X141.976 Y157.747 E0.12051
G1 X141.935 Y153.162 E0.15140
G1 X142.106 Y150.444 E0.08992
G1 X142.310 Y148.565 E0.06238
G1 X143.093 Y144.056 E0.15110
G1 X144.609 Y138.283 E0.19708
G1 X145.019 Y137.528 E0.02836
G1 X145.433 Y137.099 E0.01966
; printing object Logitech_C920-Cover.stl id:0 copy 0
G1 E-3.00000 F2400.00000
M204 S1500
G1 Z1.300000 F18000.000
G1 X160.966 Y168.774
G1 Z0.700000
G1 E3.00000 F1800.00000
M204 S1000
G1 X149.034 Y168.774 E0.39395
G1 X148.582 Y167.275 E0.05171
G1 X148.166 Y165.664 E0.05493
G1 X147.810 Y164.047 E0.05466
G1 X147.513 Y162.423 E0.05450
G1 X147.226 Y160.369 E0.06849
G1 X147.028 Y158.304 E0.06849
G1 X146.939 Y156.655 E0.05450
G1 X146.909 Y155.000 E0.05466
G1 X146.939 Y153.345 E0.05466
G1 X147.028 Y151.696 E0.05450
G1 X147.226 Y149.631 E0.06849
G1 X147.513 Y147.577 E0.06849
G1 X147.810 Y145.953 E0.05450
G1 X148.166 Y144.336 E0.05466
G1 X148.582 Y142.725 E0.05493
G1 X149.034 Y141.226 E0.05171
G1 X160.972 Y141.226 E0.39416
G1 X161.420 Y142.733 E0.05193
G1 X161.834 Y144.336 E0.05466
G1 X162.190 Y145.953 E0.05466
G1 X162.487 Y147.582 E0.05466
G1 X162.727 Y149.228 E0.05493
G1 X162.822 Y150.034 E0.02679
G1 X162.973 Y151.700 E0.05520
G1 X163.024 Y152.509 E0.02679
G1 X163.084 Y154.172 E0.05493
G1 X163.084 Y155.828 E0.05466
G1 X163.024 Y157.491 E0.05493
G1 X162.973 Y158.300 E0.02679
G1 X162.823 Y159.957 E0.05493
G1 X162.613 Y161.608 E0.05493
G1 X162.489 Y162.410 E0.02679
G1 X162.190 Y164.047 E0.05493
G1 X161.834 Y165.664 E0.05466
G1 X161.418 Y167.275 E0.05493
G1 X160.984 Y168.717 E0.04973
M204 S1500
G1 X161.257 Y169.171 F18000.000
G1 F1800.000
M204 S1000
G1 X148.743 Y169.171 E0.41315
G1 X148.426 Y168.169 E0.03470
G1 X148.199 Y167.379 E0.02715
G1 X147.780 Y165.756 E0.05535
G1 X147.421 Y164.125 E0.05514
G1 X147.121 Y162.486 E0.05501
G1 X146.832 Y160.415 E0.06905
G1 X146.632 Y158.333 E0.06904
G1 X146.542 Y156.670 E0.05501
G1 X146.511 Y155.000 E0.05514
G1 X146.542 Y153.330 E0.05514
G1 X146.632 Y151.667 E0.05501
G1 X146.832 Y149.585 E0.06904
G1 X147.121 Y147.514 E0.06905
G1 X147.421 Y145.875 E0.05501
G1 X147.780 Y144.244 E0.05514
G1 X148.199 Y142.621 E0.05535
G1 X148.426 Y141.831 E0.02715
G1 X148.743 Y140.829 E0.03470
G1 X161.263 Y140.829 E0.41335
G1 X161.803 Y142.627 E0.06200
G1 X162.220 Y144.244 E0.05514
G1 X162.579 Y145.875 E0.05514
G1 X162.879 Y147.518 E0.05514
G1 X163.121 Y149.177 E0.05535
G1 X163.217 Y149.993 E0.02715
G1 X163.369 Y151.669 E0.05556
G1 X163.420 Y152.490 E0.02715
G1 X163.481 Y154.165 E0.05535
G1 X163.481 Y155.835 E0.05514
G1 X163.420 Y157.510 E0.05535
G1 X163.369 Y158.331 E0.02715
G1 X163.217 Y160.000 E0.05535
G1 X163.006 Y161.663 E0.05535
G1 X162.880 Y162.476 E0.02715
G1 X162.579 Y164.125 E0.05535
G1 X162.220 Y165.756 E0.05514
G1 X161.801 Y167.379 E0.05535
G1 X161.275 Y169.114 E0.05986
M204 S1500
G1 X161.547 Y169.568 F18000.000
G1 F1800.000
M204 S1000
G1 X148.453 Y169.568 E0.43234
G1 X148.046 Y168.284 E0.04448
G1 X147.816 Y167.484 E0.02750
G1 X147.393 Y165.848 E0.05576
G1 X147.031 Y164.203 E0.05561
G1 X146.729 Y162.549 E0.05552
G1 X146.437 Y160.462 E0.06960
G1 X146.236 Y158.363 E0.06960
G1 X146.145 Y156.684 E0.05552
G1 X146.114 Y155.000 E0.05561
G1 X146.145 Y153.316 E0.05561
G1 X146.236 Y151.637 E0.05552
G1 X146.437 Y149.538 E0.06960
G1 X146.729 Y147.451 E0.06960
G1 X147.031 Y145.797 E0.05552
G1 X147.393 Y144.152 E0.05561
G1 X147.816 Y142.516 E0.05576
G1 X148.046 Y141.716 E0.02750
G1 X148.453 Y140.432 E0.04448
G1 X161.551 Y140.432 E0.43245
G1 X162.185 Y142.521 E0.07209
G1 X162.607 Y144.152 E0.05561
G1 X162.969 Y145.797 E0.05561
G1 X163.271 Y147.453 E0.05561
G1 X163.514 Y149.125 E0.05576
G1 X163.612 Y149.952 E0.02750
G1 X163.764 Y151.639 E0.05591
G1 X163.817 Y152.470 E0.02750
G1 X163.878 Y154.158 E0.05576
G1 X163.878 Y155.842 E0.05561
G1 X163.817 Y157.530 E0.05576
G1 X163.764 Y158.361 E0.02750
G1 X163.612 Y160.043 E0.05576
G1 X163.399 Y161.719 E0.05576
G1 X163.272 Y162.542 E0.02750
G1 X162.969 Y164.203 E0.05576
G1 X162.607 Y165.848 E0.05561
G1 X162.184 Y167.484 E0.05576
G1 X161.954 Y168.284 E0.02750
G1 X161.565 Y169.511 E0.04250
M204 S1500
G1 X161.838 Y169.965 F18000.000
G1 F1800.000
M204 S1000
G1 X148.162 Y169.965 E0.45153
G1 X147.666 Y168.399 E0.05425
G1 X147.433 Y167.588 E0.02786
G1 X147.007 Y165.941 E0.05618
G1 X146.642 Y164.282 E0.05608
G1 X146.337 Y162.612 E0.05603
G1 X146.043 Y160.508 E0.07016
G1 X145.840 Y158.393 E0.07016
G1 X145.748 Y156.698 E0.05603
G1 X145.717 Y155.000 E0.05608
G1 X145.748 Y153.302 E0.05608
G1 X145.840 Y151.607 E0.05603
G1 X146.043 Y149.492 E0.07016
G1 X146.337 Y147.388 E0.07016
G1 X146.642 Y145.718 E0.05603
G1 X147.007 Y144.059 E0.05608
G1 X147.433 Y142.412 E0.05618
G1 X147.666 Y141.601 E0.02786
G1 X148.162 Y140.035 E0.05425
G1 X161.839 Y140.035 E0.45156
G1 X162.083 Y140.784 E0.02602
G1 X162.568 Y142.415 E0.05618
G1 X162.993 Y144.059 E0.05608
G1 X163.358 Y145.718 E0.05608
G1 X163.663 Y147.389 E0.05608
G1 X163.908 Y149.073 E0.05618
G1 X164.007 Y149.911 E0.02786
G1 X164.160 Y151.608 E0.05627
G1 X164.214 Y152.450 E0.02786
G1 X164.275 Y154.151 E0.05618
G1 X164.275 Y155.849 E0.05609
G1 X164.214 Y157.550 E0.05618
G1 X164.160 Y158.392 E0.02786
G1 X164.007 Y160.086 E0.05618
G1 X163.793 Y161.774 E0.05618
G1 X163.664 Y162.608 E0.02786
G1 X163.358 Y164.282 E0.05618
G1 X162.993 Y165.941 E0.05608
G1 X162.567 Y167.588 E0.05618
G1 X162.334 Y168.399 E0.02786
G1 X161.856 Y169.908 E0.05227
M204 S1500
G1 X162.180 Y170.362 F18000.000
G1 F1800.000
M204 S1000
G1 X147.820 Y170.362 E0.47413
G1 X147.820 Y170.200 E0.00536
G1 X147.285 Y168.514 E0.05840
G1 X147.049 Y167.693 E0.02821
G1 X146.621 Y166.033 E0.05659
G1 X146.253 Y164.360 E0.05656
G1 X145.945 Y162.676 E0.05654
G1 X145.648 Y160.555 E0.07071
G1 X145.444 Y158.423 E0.07071
G1 X145.351 Y156.713 E0.05654
G1 X145.320 Y155.000 E0.05656
G1 X145.351 Y153.287 E0.05656
G1 X145.444 Y151.577 E0.05654
G1 X145.648 Y149.445 E0.07071
G1 X145.945 Y147.324 E0.07071
G1 X146.253 Y145.640 E0.05654
G1 X146.621 Y143.967 E0.05656
G1 X147.049 Y142.307 E0.05659
G1 X147.285 Y141.486 E0.02821
G1 X147.820 Y139.800 E0.05840
G1 X147.820 Y139.638 E0.00536
G1 X162.180 Y139.637 E0.47413
G1 X162.180 Y139.801 E0.00540
G1 X162.463 Y140.665 E0.03003
G1 X162.951 Y142.308 E0.05659
G1 X163.379 Y143.967 E0.05656
G1 X163.747 Y145.640 E0.05656
G1 X164.055 Y147.325 E0.05656
G1 X164.302 Y149.021 E0.05659
G1 X164.402 Y149.870 E0.02821
