; generated by SuperSlicer 2.2.53 on 2020-10-07 at 19:24:22 UTC

; TODO: check the size of the extruder and the y-bar clearance. Optimize & test supports.

; external perimeters extrusion width = 0.42mm
; perimeters extrusion width = 0.44mm
; infill extrusion width = 0.44mm
; solid infill extrusion width = 0.44mm
; top infill extrusion width = 0.44mm
; first layer extrusion width = 0.44mm

; object:{"name":"z_chain_bottom_anchor","id":"z_chain_bottom_anchor.stl id:0 copy 0","object_center":[155.000000,155.000000,0.000000],"boundingbox_center":[155.000000,155.000000,7.500000],"boundingbox_size":[44.220245,30.800003,15.000000]}

M291 P"Homing all axis" R"Printing.." S1 T2
G21		; metric values
G28 X; home all axes
G28 Y; home all axes
G28 Z; home all axes

G92 E0 F100		; reset extruder
G1 Z10 F3000 		; move z up little to prevent scratching of surface
G1 X50 F6000 		; move z up little to prevent scratching of surface
;M98 P/macros/Filament/Purge	; Run nozzle purge macro
;G1 E-1 F2000		; Retract 1mm filament
G92 E0 		; reset extruder
M291 P"Printing started !" R"Printing.." S1 T3
G21 ; set units to millimeters
G90 ; use absolute coordinates
M83 ; use relative distances for extrusion
;BEFORE_LAYER_CHANGE
;0.2


G1 Z0.750000 F18000.000
;AFTER_LAYER_CHANGE
;0.2
G1 E-3.00000 F2400.00000
G1 Z1.350000 F18000.000
G1 X130.673 Y137.786
G1 Z0.750000
G1 E3.00000 F1800.00000
M204 S1000
G1 X131.617 Y137.159 E0.03742
G1 X132.694 Y136.757 E0.03795
G1 X140.157 Y135.632 E0.24919
G1 X145.191 Y135.610 E0.16621
G1 X153.329 Y136.746 E0.27131
G1 X174.468 Y141.925 E0.71860
G1 X175.654 Y142.338 E0.04147
G1 X176.767 Y142.911 E0.04131
G1 X177.836 Y143.670 E0.04331
G1 X178.750 Y144.541 E0.04167
G1 X179.551 Y145.556 E0.04270
G1 X180.291 Y146.876 E0.04997
G1 X180.767 Y148.177 E0.04573
G1 X181.031 Y149.491 E0.04424
G1 X181.100 Y150.583 E0.03613
G1 X181.099 Y165.491 E0.49225
G1 X180.908 Y167.245 E0.05823
G1 X180.345 Y169.006 E0.06104
G1 X179.408 Y170.648 E0.06243
G1 X178.170 Y172.040 E0.06152
G1 X177.154 Y172.840 E0.04270
G1 X175.839 Y173.579 E0.04980
G1 X174.538 Y174.056 E0.04574
G1 X173.240 Y174.318 E0.04373
G1 X172.122 Y174.390 E0.03698
G1 X158.248 Y174.360 E0.45809
G1 X135.145 Y170.261 E0.77470
G1 X133.829 Y169.754 E0.04656
G1 X132.782 Y169.158 E0.03979
G1 X131.785 Y168.402 E0.04133
G1 X130.957 Y167.583 E0.03843
G1 X130.189 Y166.595 E0.04133
G1 X129.560 Y165.512 E0.04133
G1 X129.086 Y164.351 E0.04141
G1 X128.908 Y163.344 E0.03376
G1 X128.901 Y141.526 E0.72038
G1 X129.015 Y140.542 E0.03271
G1 X129.321 Y139.598 E0.03277
G1 X129.899 Y138.607 E0.03786
G1 X130.632 Y137.830 E0.03528
M204 S1500
G1 X130.919 Y138.104 F18000.000
G1 F1800.000
M204 S1000
G1 X131.820 Y137.501 E0.03578
G1 X132.827 Y137.133 E0.03542
G1 X140.194 Y136.027 E0.24595
G1 X145.191 Y136.007 E0.16498
G1 X153.249 Y137.135 E0.26866
G1 X174.355 Y142.306 E0.71749
G1 X175.494 Y142.702 E0.03979
G1 X176.553 Y143.245 E0.03931
G1 X177.515 Y143.921 E0.03882
G1 X178.441 Y144.791 E0.04196
G1 X179.215 Y145.769 E0.04116
G1 X179.929 Y147.040 E0.04815
G1 X180.386 Y148.289 E0.04389
G1 X180.637 Y149.545 E0.04230
G1 X180.703 Y150.585 E0.03441
G1 X180.702 Y165.477 E0.49169
G1 X180.521 Y167.159 E0.05586
G1 X179.985 Y168.838 E0.05817
G1 X179.135 Y170.348 E0.05720
G1 X177.919 Y171.731 E0.06082
G1 X176.941 Y172.505 E0.04116
G1 X175.674 Y173.217 E0.04799
G1 X174.426 Y173.675 E0.04389
G1 X173.180 Y173.925 E0.04198
G1 X172.120 Y173.993 E0.03507
G1 X158.283 Y173.965 E0.45685
G1 X135.253 Y169.878 E0.77229
G1 X133.997 Y169.394 E0.04443
G1 X132.999 Y168.826 E0.03792
G1 X132.045 Y168.101 E0.03955
G1 X131.266 Y167.332 E0.03614
G1 X130.525 Y166.384 E0.03972
G1 X129.927 Y165.358 E0.03923
G1 X129.471 Y164.254 E0.03942
G1 X129.304 Y163.319 E0.03138
G1 X129.298 Y141.539 E0.71909
G1 X129.396 Y140.656 E0.02936
G1 X129.684 Y139.757 E0.03116
G1 X130.239 Y138.816 E0.03606
G1 X130.877 Y138.147 E0.03054
M204 S1500
G1 X131.163 Y138.421 F18000.000
G1 F1800.000
M204 S1000
G1 X131.209 Y138.373 E0.00221
G1 X132.012 Y137.849 E0.03163
G1 X132.953 Y137.512 E0.03300
G1 X140.231 Y136.422 E0.24301
G1 X145.190 Y136.404 E0.16373
G1 X153.164 Y137.523 E0.26586
G1 X174.248 Y142.689 E0.71673
G1 X175.334 Y143.065 E0.03795
G1 X176.340 Y143.581 E0.03732
G1 X177.258 Y144.224 E0.03701
G1 X178.134 Y145.044 E0.03961
G1 X178.880 Y145.982 E0.03958
G1 X179.568 Y147.204 E0.04630
G1 X180.004 Y148.396 E0.04188
G1 X180.243 Y149.599 E0.04051
G1 X180.306 Y150.588 E0.03272
G1 X180.305 Y165.464 E0.49116
G1 X180.133 Y167.075 E0.05350
G1 X179.624 Y168.671 E0.05531
G1 X178.815 Y170.112 E0.05455
G1 X177.666 Y171.424 E0.05760
G1 X176.728 Y172.170 E0.03958
G1 X175.510 Y172.856 E0.04615
G1 X174.319 Y173.292 E0.04188
G1 X173.125 Y173.532 E0.04020
G1 X172.117 Y173.596 E0.03334
G1 X158.323 Y173.570 E0.45546
G1 X135.353 Y169.494 E0.77024
G1 X134.160 Y169.032 E0.04224
G1 X133.211 Y168.491 E0.03607
G1 X132.308 Y167.804 E0.03746
G1 X131.576 Y167.083 E0.03392
G1 X130.859 Y166.168 E0.03839
G1 X130.290 Y165.197 E0.03716
G1 X129.855 Y164.150 E0.03743
G1 X129.700 Y163.290 E0.02885
G1 X129.695 Y141.552 E0.71774
G1 X129.783 Y140.743 E0.02686
G1 X130.046 Y139.921 E0.02852
G1 X130.556 Y139.054 E0.03320
G1 X131.122 Y138.464 E0.02697
M204 S1500
G1 X131.408 Y138.736 F18000.000
G1 F1800.000
M204 S1000
G1 X131.460 Y138.681 E0.00248
G1 X132.195 Y138.202 E0.02898
G1 X133.066 Y137.893 E0.03051
G1 X140.269 Y136.818 E0.24048
G1 X145.190 Y136.801 E0.16246
G1 X153.084 Y137.912 E0.26322
G1 X174.138 Y143.070 E0.71569
G1 X175.171 Y143.427 E0.03609
G1 X176.117 Y143.910 E0.03506
G1 X176.989 Y144.516 E0.03506
G1 X177.773 Y145.239 E0.03521
G1 X178.538 Y146.186 E0.04020
G1 X179.199 Y147.353 E0.04429
G1 X179.620 Y148.499 E0.04030
G1 X179.849 Y149.643 E0.03854
G1 X179.909 Y150.591 E0.03135
G1 X179.908 Y165.438 E0.49022
G1 X179.747 Y166.978 E0.05112
G1 X179.272 Y168.485 E0.05218
G1 X178.508 Y169.859 E0.05189
G1 X177.471 Y171.063 E0.05247
G1 X176.528 Y171.826 E0.04005
G1 X175.361 Y172.487 E0.04429
G1 X174.216 Y172.909 E0.04030
G1 X173.080 Y173.137 E0.03825
G1 X172.119 Y173.199 E0.03179
G1 X158.379 Y173.176 E0.45366
G1 X135.479 Y169.116 E0.76791
G1 X134.688 Y168.838 E0.02768
G1 X133.749 Y168.360 E0.03477
G1 X132.915 Y167.790 E0.03337
G1 X132.096 Y167.057 E0.03628
G1 X131.234 Y166.013 E0.04471
G1 X130.687 Y165.101 E0.03512
G1 X130.248 Y164.078 E0.03675
G1 X130.098 Y163.290 E0.02648
G1 X130.092 Y141.564 E0.71734
G1 X130.167 Y140.847 E0.02381
G1 X130.396 Y140.111 E0.02543
G1 X130.850 Y139.324 E0.03000
G1 X131.367 Y138.779 E0.02480
; printing object z_chain_bottom_anchor.stl id:0 copy 0
G1 E-3.00000 F2400.00000
M204 S1500
G1 Z1.350000 F18000.000
G1 X169.752 Y158.154
G1 Z0.750000
G1 E3.00000 F1800.00000
M204 S1000
G1 X169.737 Y157.862 E0.00963
G1 X170.414 Y157.649 E0.02345
G1 X171.052 Y157.306 E0.02390
G1 X171.659 Y156.811 E0.02588
G1 X172.099 Y156.283 E0.02269
G1 X172.383 Y155.818 E0.01800
G1 X172.630 Y155.220 E0.02136
G1 X172.751 Y154.754 E0.01588
G1 X172.819 Y154.096 E0.02184
G1 X172.819 Y152.904 E0.03937
G1 X172.747 Y152.200 E0.02337
G1 X172.509 Y151.446 E0.02607
G1 X172.167 Y150.809 E0.02390
G1 X171.672 Y150.201 E0.02588
G1 X171.143 Y149.762 E0.02269
G1 X170.678 Y149.478 E0.01800
G1 X170.038 Y149.212 E0.02289
G1 X169.265 Y149.053 E0.02604
G1 X165.676 Y149.041 E0.11851
G1 X165.085 Y149.096 E0.01961
G1 X164.555 Y149.224 E0.01798
G1 X163.943 Y149.478 E0.02188
G1 X163.478 Y149.762 E0.01800
G1 X162.956 Y150.195 E0.02240
G1 X162.523 Y150.717 E0.02240
G1 X162.238 Y151.182 E0.01800
G1 X161.985 Y151.795 E0.02188
G1 X161.857 Y152.324 E0.01798
G1 X161.802 Y152.913 E0.01951
G1 X161.802 Y154.087 E0.03879
G1 X161.857 Y154.676 E0.01951
G1 X161.985 Y155.205 E0.01798
G1 X162.238 Y155.818 E0.02188
G1 X162.523 Y156.283 E0.01800
G1 X162.956 Y156.805 E0.02240
G1 X163.478 Y157.238 E0.02240
G1 X163.943 Y157.522 E0.01800
G1 X164.583 Y157.788 E0.02289
G1 X164.866 Y157.846 E0.00953
G1 X164.871 Y158.148 E0.00998
G1 X164.555 Y158.224 E0.01073
G1 X163.943 Y158.478 E0.02188
G1 X163.478 Y158.762 E0.01800
G1 X162.956 Y159.195 E0.02240
G1 X162.523 Y159.717 E0.02240
G1 X162.238 Y160.182 E0.01800
G1 X161.985 Y160.795 E0.02188
G1 X161.857 Y161.324 E0.01798
G1 X161.802 Y161.913 E0.01951
G1 X161.802 Y163.087 E0.03879
G1 X161.857 Y163.676 E0.01951
G1 X161.985 Y164.205 E0.01799
G1 X162.238 Y164.818 E0.02188
G1 X162.523 Y165.283 E0.01800
G1 X162.956 Y165.805 E0.02240
G1 X163.478 Y166.238 E0.02240
G1 X163.943 Y166.522 E0.01800
G1 X164.583 Y166.788 E0.02289
G1 X165.356 Y166.947 E0.02604
G1 X168.954 Y166.959 E0.11879
G1 X169.661 Y166.886 E0.02347
G1 X170.414 Y166.649 E0.02608
G1 X171.052 Y166.306 E0.02390
G1 X171.659 Y165.811 E0.02588
G1 X172.099 Y165.283 E0.02269
G1 X172.383 Y164.818 E0.01800
G1 X172.630 Y164.220 E0.02136
G1 X172.751 Y163.754 E0.01588
G1 X172.819 Y163.096 E0.02184
G1 X172.819 Y161.904 E0.03937
G1 X172.747 Y161.200 E0.02337
G1 X172.509 Y160.446 E0.02608
G1 X172.167 Y159.809 E0.02390
G1 X171.672 Y159.201 E0.02588
G1 X171.143 Y158.762 E0.02269
G1 X170.678 Y158.478 E0.01800
G1 X170.038 Y158.212 E0.02289
G1 X169.810 Y158.166 E0.00766
M204 S1500
G1 X169.224 Y158.450 F18000.000
G1 F1800.000
M204 S1000
G1 X165.694 Y158.439 E0.11656
G1 X165.150 Y158.489 E0.01803
G1 X164.679 Y158.603 E0.01601
G1 X164.124 Y158.833 E0.01984
G1 X163.709 Y159.086 E0.01602
G1 X163.238 Y159.477 E0.02023
G1 X162.846 Y159.949 E0.02023
G1 X162.593 Y160.363 E0.01602
G1 X162.363 Y160.918 E0.01984
G1 X162.250 Y161.389 E0.01601
G1 X162.199 Y161.931 E0.01795
G1 X162.199 Y163.069 E0.03758
G1 X162.250 Y163.611 E0.01795
G1 X162.363 Y164.082 E0.01601
G1 X162.593 Y164.637 E0.01984
G1 X162.846 Y165.051 E0.01602
G1 X163.238 Y165.523 E0.02023
G1 X163.709 Y165.914 E0.02023
G1 X164.124 Y166.167 E0.01602
G1 X164.701 Y166.406 E0.02062
G1 X165.397 Y166.550 E0.02348
G1 X168.934 Y166.561 E0.11679
G1 X169.580 Y166.495 E0.02144
G1 X170.259 Y166.281 E0.02351
G1 X170.830 Y165.974 E0.02141
G1 X171.379 Y165.528 E0.02335
G1 X171.775 Y165.051 E0.02046
G1 X172.028 Y164.637 E0.01602
G1 X172.253 Y164.093 E0.01943
G1 X172.359 Y163.684 E0.01398
G1 X172.422 Y163.076 E0.02017
G1 X172.422 Y161.924 E0.03803
G1 X172.356 Y161.280 E0.02137
G1 X172.142 Y160.601 E0.02351
G1 X171.835 Y160.030 E0.02141
G1 X171.388 Y159.482 E0.02335
G1 X170.912 Y159.086 E0.02046
G1 X170.498 Y158.833 E0.01602
G1 X169.920 Y158.594 E0.02062
G1 X169.283 Y158.462 E0.02150
M204 S1500
G1 X169.183 Y158.847 F18000.000
G1 F1800.000
M204 S1000
G1 X165.712 Y158.836 E0.11462
G1 X165.215 Y158.882 E0.01645
G1 X164.802 Y158.982 E0.01404
G1 X164.304 Y159.188 E0.01779
G1 X163.941 Y159.410 E0.01405
G1 X163.520 Y159.759 E0.01807
G1 X163.170 Y160.180 E0.01807
G1 X162.948 Y160.544 E0.01405
G1 X162.742 Y161.041 E0.01779
G1 X162.642 Y161.455 E0.01404
G1 X162.596 Y161.949 E0.01640
G1 X162.596 Y163.051 E0.03636
G1 X162.642 Y163.545 E0.01640
G1 X162.742 Y163.959 E0.01404
G1 X162.948 Y164.456 E0.01779
G1 X163.170 Y164.820 E0.01405
G1 X163.520 Y165.241 E0.01807
G1 X163.941 Y165.590 E0.01807
G1 X164.304 Y165.812 E0.01405
G1 X164.818 Y166.025 E0.01836
G1 X165.438 Y166.153 E0.02092
G1 X168.914 Y166.164 E0.11478
G1 X169.499 Y166.104 E0.01942
G1 X170.104 Y165.914 E0.02094
G1 X170.609 Y165.643 E0.01892
G1 X171.098 Y165.244 E0.02082
G1 X171.451 Y164.820 E0.01823
G1 X171.673 Y164.456 E0.01405
G1 X171.876 Y163.967 E0.01750
G1 X171.968 Y163.613 E0.01207
G1 X172.025 Y163.056 E0.01850
G1 X172.025 Y161.944 E0.03669
G1 X171.965 Y161.361 E0.01936
G1 X171.774 Y160.756 E0.02094
G1 X171.503 Y160.251 E0.01892
G1 X171.105 Y159.763 E0.02082
G1 X170.680 Y159.410 E0.01823
G1 X170.317 Y159.188 E0.01405
G1 X169.803 Y158.975 E0.01836
G1 X169.242 Y158.859 E0.01894
M204 S1500
G1 X169.142 Y159.244 F18000.000
G1 F1800.000
M204 S1000
G1 X165.729 Y159.233 E0.11267
G1 X165.281 Y159.274 E0.01488
G1 X164.925 Y159.360 E0.01207
G1 X164.485 Y159.543 E0.01575
G1 X164.173 Y159.733 E0.01208
G1 X163.802 Y160.041 E0.01591
G1 X163.494 Y160.412 E0.01591
G1 X163.303 Y160.724 E0.01208
G1 X163.121 Y161.165 E0.01575
G1 X163.035 Y161.520 E0.01207
G1 X162.993 Y161.968 E0.01484
G1 X162.993 Y163.032 E0.03515
G1 X163.035 Y163.480 E0.01484
G1 X163.121 Y163.835 E0.01207
G1 X163.303 Y164.276 E0.01575
G1 X163.494 Y164.588 E0.01208
G1 X163.802 Y164.959 E0.01591
G1 X164.173 Y165.267 E0.01591
G1 X164.485 Y165.457 E0.01208
G1 X164.935 Y165.644 E0.01609
G1 X165.479 Y165.756 E0.01836
G1 X168.895 Y165.767 E0.11277
G1 X169.419 Y165.713 E0.01739
G1 X169.949 Y165.546 E0.01837
G1 X170.388 Y165.311 E0.01643
G1 X170.817 Y164.961 E0.01829
G1 X171.127 Y164.588 E0.01601
G1 X171.318 Y164.276 E0.01208
G1 X171.498 Y163.840 E0.01557
G1 X171.576 Y163.542 E0.01016
G1 X171.628 Y163.035 E0.01683
G1 X171.628 Y161.965 E0.03534
G1 X171.574 Y161.442 E0.01736
G1 X171.407 Y160.911 E0.01837
G1 X171.171 Y160.473 E0.01643
G1 X170.821 Y160.043 E0.01829
G1 X170.449 Y159.733 E0.01601
G1 X170.136 Y159.543 E0.01208
G1 X169.686 Y159.356 E0.01609
G1 X169.200 Y159.256 E0.01637
M204 S1500
G1 X169.101 Y159.641 F18000.000
G1 F1800.000
M204 S1000
G1 X165.747 Y159.630 E0.11072
G1 X165.346 Y159.667 E0.01330
G1 X165.049 Y159.739 E0.01010
G1 X164.665 Y159.898 E0.01370
G1 X164.404 Y160.057 E0.01010
G1 X164.084 Y160.323 E0.01375
G1 X163.818 Y160.644 E0.01375
G1 X163.658 Y160.905 E0.01010
G1 X163.500 Y161.288 E0.01370
G1 X163.428 Y161.585 E0.01010
G1 X163.391 Y161.986 E0.01329
G1 X163.391 Y163.014 E0.03393
G1 X163.428 Y163.415 E0.01329
G1 X163.500 Y163.712 E0.01010
G1 X163.658 Y164.095 E0.01370
G1 X163.818 Y164.356 E0.01010
G1 X164.084 Y164.677 E0.01375
G1 X164.404 Y164.943 E0.01375
G1 X164.665 Y165.102 E0.01010
G1 X165.052 Y165.262 E0.01382
G1 X165.521 Y165.359 E0.01580
G1 X168.875 Y165.370 E0.11076
G1 X169.338 Y165.323 E0.01536
G1 X169.794 Y165.179 E0.01580
G1 X170.166 Y164.979 E0.01394
G1 X170.536 Y164.677 E0.01576
G1 X170.803 Y164.356 E0.01378
G1 X170.963 Y164.095 E0.01010
G1 X171.121 Y163.714 E0.01364
G1 X171.184 Y163.472 E0.00825
G1 X171.231 Y163.015 E0.01516
G1 X171.231 Y161.985 E0.03400
G1 X171.183 Y161.523 E0.01535
G1 X171.039 Y161.066 E0.01580
G1 X170.839 Y160.694 E0.01394
G1 X170.538 Y160.324 E0.01576
G1 X170.217 Y160.057 E0.01378
G1 X169.956 Y159.898 E0.01010
G1 X169.569 Y159.738 E0.01382
G1 X169.159 Y159.653 E0.01381
M204 S1500
G1 X168.925 Y159.281 F18000.000
G1 X169.580 Y157.495
G1 F1800.000
M204 S1000
G1 X170.259 Y157.281 E0.02351
G1 X170.830 Y156.974 E0.02141
G1 X171.379 Y156.528 E0.02335
G1 X171.775 Y156.051 E0.02046
G1 X172.028 Y155.637 E0.01602
G1 X172.253 Y155.093 E0.01943
G1 X172.359 Y154.684 E0.01398
G1 X172.422 Y154.076 E0.02017
G1 X172.422 Y152.924 E0.03803
G1 X172.356 Y152.280 E0.02137
G1 X172.142 Y151.601 E0.02351
G1 X171.835 Y151.030 E0.02141
G1 X171.388 Y150.482 E0.02335
G1 X170.912 Y150.086 E0.02046
G1 X170.498 Y149.833 E0.01602
G1 X169.920 Y149.594 E0.02062
G1 X169.224 Y149.450 E0.02348
G1 X165.694 Y149.439 E0.11656
G1 X165.150 Y149.489 E0.01803
G1 X164.679 Y149.603 E0.01601
G1 X164.124 Y149.833 E0.01984
G1 X163.709 Y150.086 E0.01602
G1 X163.238 Y150.477 E0.02023
G1 X162.846 Y150.949 E0.02023
G1 X162.593 Y151.363 E0.01602
G1 X162.363 Y151.918 E0.01984
G1 X162.250 Y152.389 E0.01601
G1 X162.199 Y152.931 E0.01795
G1 X162.199 Y154.069 E0.03758
G1 X162.250 Y154.611 E0.01795
G1 X162.363 Y155.082 E0.01601
G1 X162.593 Y155.637 E0.01984
G1 X162.846 Y156.051 E0.01602
G1 X163.238 Y156.523 E0.02023
G1 X163.709 Y156.914 E0.02023
G1 X164.124 Y157.167 E0.01602
G1 X164.701 Y157.406 E0.02062
G1 X165.397 Y157.550 E0.02348
G1 X168.934 Y157.561 E0.11679
G1 X169.520 Y157.501 E0.01946
M204 S1500
G1 X169.499 Y157.104 F18000.000
G1 F1800.000
M204 S1000
G1 X170.104 Y156.914 E0.02094
G1 X170.609 Y156.643 E0.01892
G1 X171.098 Y156.244 E0.02082
G1 X171.451 Y155.820 E0.01823
G1 X171.673 Y155.456 E0.01405
G1 X171.876 Y154.967 E0.01750
G1 X171.968 Y154.613 E0.01207
G1 X172.025 Y154.056 E0.01850
G1 X172.025 Y152.944 E0.03669
G1 X171.965 Y152.361 E0.01936
G1 X171.774 Y151.756 E0.02094
G1 X171.503 Y151.251 E0.01892
G1 X171.105 Y150.763 E0.02082
G1 X170.680 Y150.410 E0.01823
G1 X170.317 Y150.188 E0.01405
G1 X169.803 Y149.975 E0.01836
G1 X169.183 Y149.847 E0.02092
G1 X165.712 Y149.836 E0.11462
G1 X165.215 Y149.882 E0.01645
